!!!ONB: MCCC : IGR0001_06 : Extracted Monophonic Melody
!!!COM: Rossini, Gioacchino
!!!OPR: Péchés de vieillesse
!!!OMV: 6
!!!SCT: Op.72
!!!ODT: 1857///
**kern
*staff1
*clefG2
*k[f#c#]
*D:
*M3/8
=3
4.A
=4
8A#
8r
8r
=5
24a#
24cc
24a#
8d
8d#
=6
4f
8r
=7
4.f
=8
8f#
8r
8r
=9
24f#
24g#
24f#
8A#
8B
=10
4c#
8r
=11
8e
8r
8r
=12
8g
8r
8r
=13
24b
24cc#
24b
8e
8f#
=14
4.g
=15
4.g#
=16
8a
8r
32cc#
32dd
16ee
=17
24b
24cc#
24b
8e
8f#
=18
4.g
=19
4.g#
=20
8a
8r
32ee
32ff#
16gg
=21
24b
24cc#
24b
8r
8r
=22
24b
24cc#
24b
8r
8r
=23
24g
24a
24g
8r
8r
=24
24e
24f#
24e
8r
8r
=25
24B
24c#
24B
8r
8r
=26
24G
24A
24G
8r
8r
=27
4.r
=28
4.r
=29
32ff#
32gg
16aa
8r
8r
=30
32ff#
32ee
16dd
8r
8r
=31
32dd
32cc#
16b
8r
8r
=32
32cc#
32b
16a
8r
8r
=33
32g
32a
16b
8r
8r
=34
32a
32g
16f#
8r
8r
=35
32g
32f#
16e
8r
8r
=36
32f#
32e
16d
8r
8r
=37
32ff#
32gg
16aa
8r
8r
=38
32ff#
32ee
16dd
8r
8r
=39
32dd
32cc#
16b
8r
8r
=40
32cc#
32b
16a
8r
8r
=41
32g
32a
16b
8r
8r
=42
32a
32g
16f#
8r
8r
=43
32g
32f#
16e
8r
8r
=44
32f#
32e
16d
8r
8r
=45
48e
48f#
48g#
16a
8r
8r
=46
48g#
48a
48b
16cc
8r
8r
=47
48gg#
48aa
48bb
16ccc
8r
8r
=48
64aa
64bb
64ccc#
64ddd
16eee
8r
8r
=49
64eee
64fff#
64ggg#
64aaa
16bbb
8r
8r
=50
64aaa
64bbb
64cccc#
64dddd
32r
32eeee
8r
8r
=51
64aaa
64ggg#
64fff#
64eee
16ddd#
8r
8r
=52
64bb
64aa
64gg#
64ff#
16ee
8r
8r
=53
48e
48f#
48g#
16a
8r
8r
=54
32g#
64a
64b
16cc
8r
8r
=55
32gg#
64aa
64bb
16ccc
8r
8r
=56
80r
80aa
80bb
80ccc#
40ddd
20eee
8r
8r
=57
80r
80eee
80fff#
80ggg#
40aaa
20bbb
8r
8r
=58
64aaa
64bbb
64cccc#
64dddd
16eeee
8r
8r
=59
32ddd
32ccc#
32bb
32aa
32gg#
32ff#
32ee
32dd
32cc#
32ee
32dd
32b
=60
8a
8r
8r
=61
24b
24cc#
24b
8e
8f#
=62
4.g
=63
4.g#
=64
8a
8r
32ee
32ff#
16gg
=65
24b
24cc#
24b
8e
8f#
=66
4.g
=67
4.g#
=68
8a
8r
32ee
32ff#
16gg
=69
24b
24cc#
24b
8r
8r
=70
24b
24cc#
24b
8r
8r
=71
24g
24a
24g
8r
8r
=72
24e
24f#
24e
8r
8r
=73
24B
24c#
24B
8r
8r
=74
24G
24A
24G
8r
8r
=75
8A
8r
8r
=76
4.r
=77
32ff#
32gg
16aa
8r
8r
=78
32ff#
32ee
16dd
8r
8r
=79
32dd
32cc#
16b
8r
8r
=80
32cc#
32b
16a
8r
8r
=81
32g
32a
16b
8r
8r
=82
32a
32g
16f#
8r
8r
=83
32g
32f#
16e
8r
8r
=84
32f#
32e
16d
8r
8r
=85
32ff#
32gg
16aa
8r
8r
=86
32ff#
32ee
16dd
8r
8r
=87
32dd
32cc#
16b
8r
8r
=88
32cc#
32b
16a
8r
8r
=89
32g
32a
16b
8r
8r
=90
32a
32g
16f#
8r
8r
=91
32g
32f#
16e
8r
8r
=92
24d
24e
24d
8A
8f#
=93
24f#
24g
24f#
8d
8a
=94
24a
24b
24a
8f#
8dd
=95
4ff#
8ee
=96
24dd
24ee
24dd
8a
8ff#
=97
24ff#
24gg
24ff#
8dd
8aa
=98
24aa
24bb
24aa
8ff#
8ddd
=99
4fff#
8eee
=100
8ddd
24aaa
24fff#
24ddd
8aa[
=101
8aa]
24aa
24ff#
24dd
8a[
=102
8a]
24a
24f#
24d
8A[
=103
8A]
8r
8r
=104
4.r
=105
4.r
=106
4.r
=107
4.r
=108
8bb
8r
8r
=109
8bb
8r
8r
=110
8aa#
8bb
8eee
=111
4ddd
8r
=112
8gg
8r
8r
=113
8gg
8r
8r
=114
8gg
8ff#
8aa
=115
4ccc
8r
=116
8bb
8r
8r
=117
8bb
8r
8r
=118
8aa#
8bb
8eee
=119
4ggg
8r
=120
8r
24ff#
24gg
24ff#
8fff#
=121
8r
24ee
24ff#
24ee
8eee
=122
8r
24dd
24ee
24dd
8ddd
=123
8r
24cc
24dd
24cc
8ccc
=124
8r
16bb
16bb
8bb
=125
8r
16bb
16bb
8bb
=126
8aa#
8bb
8eee
=127
4ddd
8r
=128
8r
16gg
16gg
8gg
=129
8r
16gg
16gg
8gg
=130
8gg
8ff#
8aa
=131
4ccc
8r
=132
8r
16aa#
16aa#
8aa#
=133
8r
16aa#
16aa#
8aa#
=134
8gg##
8aa#
8ddd#
=135
4ggg
8r
=136
8r
24ddd
24eee
24ddd
8dddd
=137
24dd
24ee
24dd
8ddd
8r
=138
8r
24d
24e
24d
8g
=139
24dd
24ee
24dd
8g
8a
=140
4.b
=141
4.a#
=142
8a
8r
64ee
64ff#
16.gg
=143
24b
24cc#
24b
8e
8f#
=144
4.g
=145
4.g#
=146
8a
8r
64ee
64ff#
16.gg
=147
24b
24cc#
24b
8r
8r
=148
24b
24cc#
24b
8r
8r
=149
24g
24a
24g
8r
8r
=150
24e
24f#
24e
8r
8r
=151
24B
24c#
24B
8r
8r
=152
24G
24A
24G
8r
8r
=153
4.r
=154
4.r
=155
32ff#
32gg
16aa
8r
8r
=156
32ff#
32ee
16dd
8r
8r
=157
32dd
32cc#
16b
8r
8r
=158
32cc#
32b
16a
8r
8r
=159
32g
32a
16b
8r
8r
=160
32a
32g
16f#
8r
8r
=161
32g
32f#
16e
8r
8r
=162
32f#
32e
16d
8r
8r
=163
32ff#
32gg
16aa
8r
8r
=164
32ff#
32ee
16dd
8r
8r
=165
32dd
32cc#
16b
8r
8r
=166
32cc#
32b
16a
8r
8r
=167
32g
32a
16b
8r
8r
=168
32a
32g
16f#
8r
8r
=169
32g
32f#
16e
8r
8r
=170
24d
24e
24d
8A
8f#
=171
24f#
24g
24f#
8d
8a
=172
24a
24b
24a
8f#
8dd
=173
4ff#
8ee
=174
24dd
24ee
24dd
8a
8ff#
=175
24ff#
24gg
24ff#
8dd
8aa
=176
24aa
24bb
24aa
8ff#
8ddd
=177
4fff#
8eee
=178
8ddd
24aaa
24fff#
24ddd
8aa[
=179
8aa]
24aa
24ff#
24dd
8a[
=180
8a]
24a
24f#
24d
8A[
=181
8A]
8r
8r
=182
4.r
=183
4.r
=184
4.r
=185
4.r
=186
16d
16dd
16dd
16dd
16dd
16dd[
=187
8dd]
8a
8a#
=188
16d
16dd
16dd
16dd
16dd
16dd[
=189
8dd]
8a
8a#
=190
8gg
16b
16b
8cc
=191
8fff
16b
16b
8cc
=192
8eee
16b
16b
8cc
=193
8ddd#
16b
16b
8cc
=194
16d
16dd
16dd
16dd
16dd
16dd[
=195
8dd]
8a
8a#
=196
16d
16dd
16dd
16dd
16dd
16dd[
=197
8dd]
8a
8a#
=198
32dd
16.ddd
16ccc
16aa#
16gg
16ee
=199
16dd
16cc
16a#
16g
16e
16cc
=200
8ff
8r
8r
=201
8aa
8r
8r
=202
16d
16dd
16dd
16dd
16dd
16dd[
=203
8dd]
8a
8a#
=204
16d
16dd
16dd
16dd
16dd
16dd[
=205
8dd]
8a
8a#
=206
8gg
16b
16b
8cc
=207
8fff
16b
16b
8cc
=208
8eee
16b
16b
8cc
=209
8ddd#
16b
16b
8cc
=210
16d
16dd
16dd
16dd
16dd
16dd[
=211
8dd]
8a
8a#
=212
16d#
16dd#
16dd#
16dd#
16dd#
16dd#[
=213
8dd#]
8a#
8a#
=214
32dd
16.ddd
16ccc
16aa#
16aa
16gg
=215
16ee
16ff
16aa
16gg
16dd#
16cc
=216
8aa#
8r
8r
=217
24ff
24gg
24ff
8a#
8cc
=218
4.dd
=219
4.ee
=220
8a
8r
48cc#
48dd
48r
16ee
=221
24a#
24cc
24a#
8d#
8f
=222
4.g
=223
4.g#
=224
8a
8r
32ee
32ff#
16gg
=225
24b
24cc#
24b
8r
8r
=226
24b
24cc#
24b
8r
8r
=227
24g
24a
24g
8r
8r
=228
24e
24f#
24e
8r
8r
=229
24B
24c#
24B
8r
8r
=230
24G
24A
24G
8r
8r
=231
4.r
=232
4.r
=233
32ff#
32gg
16aa
8r
8r
=234
32ff#
32ee
16dd
8r
8r
=235
32dd
32cc#
16b
8r
8r
=236
32cc#
32b
16a
8r
8r
=237
32g
32a
16b
8r
8r
=238
32a
32g
16f#
8r
8r
=239
32g
32f#
16e
8r
8r
=240
32f#
32e
16d
8r
8r
=241
32ff#
32gg
16aa
8r
8r
=242
32ff#
32ee
16dd
8r
8r
=243
32dd
32cc#
16b
8r
8r
=244
32cc#
32b
16a
8r
8r
=245
32g
32a
16b
8r
8r
=246
32a
32g
16f#
8r
8r
=247
32g
32f#
16e
8r
8r
=248
32f#
32e
16d
8r
8r
=249
48e
48f#
48g#
16a
8r
8r
=250
48g#
48a
48b
16cc
8r
8r
=251
48gg#
48aa
48bb
16ccc
8r
8r
=252
64aa
64bb
64ccc#
64ddd
16eee
8r
8r
=253
64eee
64fff#
64ggg#
64aaa
16bbb
8r
8r
=254
64aaa
64bbb
64cccc#
64dddd
32r
32eeee
8r
8r
=255
64aaa
64ggg#
64fff#
64eee
16ddd#
8r
8r
=256
64bb
64aa
64gg#
64ff#
16ee
8r
8r
=257
48e
48f#
48g#
16a
8r
8r
=258
32g#
64a
64b
16cc
8r
8r
=259
32gg#
64aa
64bb
16ccc
8r
8r
=260
80r
80aa
80bb
80ccc#
40ddd
20eee
8r
8r
=261
80r
80eee
80fff#
80ggg#
40aaa
20bbb
8r
8r
=262
64aaa
64bbb
64cccc#
64dddd
16eeee
8r
8r
=263
32ddd
32ccc#
32bb
32aa
32gg#
32ff#
32ee
32dd
32cc#
32ee
32dd
32b
=264
8a
8r
8r
=265
24b
24cc#
24b
8e
8f#
=266
4.g
=267
4.g#
=268
8a
8r
32ee
32ff#
16gg
=269
24b
24cc#
24b
8e
8f#
=270
4.g
=271
4.g#
=272
8a
8r
32ee
32ff#
16gg
=273
24b
24cc#
24b
8r
8r
=274
24b
24cc#
24b
8r
8r
=275
24g
24a
24g
8r
8r
=276
24e
24f#
24e
8r
8r
=277
24B
24c#
24B
8r
8r
=278
24G
24A
24G
8r
8r
=279
8A
8r
8r
=280
8r
24dd
24ee
24ff#
24ee
24dd
24cc#
=281
8b
24dd
24ff#
24ddd
24f#
24a
24ff#
=282
4.ff#[
=283
8ff#]
8ee
8dd
=284
8cc#
24G
24A
24A#
24A
24G
24F
=285
8E
24G
24c#
24g
24g
24cc#
24gg
=286
4.gg[
=287
8gg]
8ff#
8ee
=288
8dd
24f#
24g
24a
24g
24f#
24e
=289
8d
24f#
24a
24ff#
24ff#
24aa
24fff#
=290
4.fff#[
=291
8fff#]
8eee
8ddd
=292
8ccc#
24g
24a
24a#
24a
24g
24f
=293
8e
24g
24cc#
24gg
24gg
24ccc#
24ggg
=294
4.ggg[
=295
8ggg]
8fff#
8eee
=296
8ddd
24f#
24g
24a
24g
24f#
24e
=297
8d
24dd
24ee
24dd
8ddd[
=298
8ddd]
24cc#
24dd
24cc#
8ccc#[
=299
8ccc#]
24b
24cc#
24b
8bb[
=300
8bb]
24a
24b
24a
8aa[
=301
8aa]
24g
24a
24g
8gg[
=302
8gg]
24f#
24a
24f#
8ff#[
=303
8ff#]
24f#
24b
24f#
8ff#
=304
8r
24ee
24ff#
24ee
8eee
=305
8r
24ee
24ff#
24ee
8eee
=306
8r
24ee
24ff#
24ee
8eee
=307
8r
24ff
24gg
24ff
8fff
=308
8r
24gg
24gg#
24gg
8ggg
=309
8r
24gg#
24aa#
24gg#
8ggg#
=310
8r
24aa
24bb
24aa
8aaa
=311
8r
24bb
24ccc#
24bb
8bbb
=312
24bbb
24aaa
24ggg#
24bbb
24aaa
24ggg#
24bbb
24aaa
24ggg#
=313
24bbb
24aaa
24ggg#
24bbb
24aaa
24ggg#
24bbb
24aaa
24ggg#
=314
24bbb
24aaa
24ggg
24fff#
24eee
24ddd
24ccc#
24bb
24aa
=315
24gg
24ff#
24ee
24dd
24cc#
24b
24a
24g
24e
=316
8r
24dd
24ee
24ff#
24ee
24dd
24cc#
=317
8b
24dd
24ff#
24ddd
24f#
24a
24ff#
=318
4.ff#[
=319
8ff#]
8ee
8dd
=320
8cc#
24G
24A
24A#
24A
24G
24F
=321
8E
24G
24c#
24g
24g
24cc#
24gg
=322
4.gg[
=323
8gg]
8ff#
8ee
=324
8dd
24f#
24g
24a
24g
24f#
24e
=325
8d
24f#
24a
24ff#
24ff#
24aa
24fff#
=326
4.fff#[
=327
8fff#]
8eee
8ddd
=328
8ccc#
24g
24a
24a#
24a
24g
24f
=329
8e
24g
24cc#
24gg
24gg
24ccc#
24ggg
=330
4.ggg[
=331
8ggg]
8fff#
8eee
=332
8ddd
24f#
24g
24a
24g
24f#
24e
=333
8d
24dd
24ee
24dd
8ddd[
=334
8ddd]
24cc#
24dd
24cc#
8ccc#[
=335
8ccc#]
24b
24cc#
24b
8bb[
=336
8bb]
24a
24b
24a
8aa[
=337
8aa]
24g
24a
24g
8gg[
=338
8gg]
24f#
24a
24f#
8ff#[
=339
8ff#]
24f#
24b
24f#
8ff#
=340
8r
24ee
24ff#
24ee
8eee
=341
8r
24ee
24ff#
24ee
8eee
=342
8r
24ee
24ff#
24ee
8eee
=343
8r
24ff
24gg
24ff
8fff
=344
8r
24gg
24gg#
24gg
8ggg
=345
8r
24gg#
24aa#
24gg#
8ggg#
=346
8r
24aa
24bb
24aa
8aaa
=347
8r
24bb
24ccc#
24bb
8bbb
=348
24bbb
24aaa
24ggg#
24bbb
24aaa
24ggg#
24bbb
24aaa
24ggg#
=349
24bbb
24aaa
24ggg#
24bbb
24aaa
24ggg#
24bbb
24aaa
24ggg#
=350
24bbb
24aaa
24ggg
24fff#
24eee
24ddd
24ccc#
24bb
24aa
=351
24gg
24ff#
24ee
24dd
24cc#
24b
24a
24g
24e
=352
24d
24e
24d
8A
8f#
=353
24f#
24g
24f#
8d
8a
=354
24a
24b
24a
8f#
8dd
=355
4ff#
8ee
=356
24dd
24ee
24dd
8a
8ff#
=357
24ff#
24gg
24ff#
8dd
8aa
=358
24aa
24bb
24aa
8ff#
8ddd
=359
4fff#
8eee
=360
8ddd
24aaa
24fff#
24ddd
8aa[
=361
8aa]
24aa
24ff#
24dd
8a[
=362
8a]
24a
24f#
24d
8A[
=363
8A]
8r
8r
=364
4.r
=365
4.r
=366
24B
24c#
24d
24e
24f#
24g
24a
24b
24cc#
=367
24dd
24ee
24ff#
24gg
24aa
24bb
24ccc#
24ddd
24eee
=368
8fff#
8aaa
8dddd
=369
24ff#
24gg
24ff#
8a
8b
=370
24cc#
24dd
24cc#
8f#
8g
=371
24fff
24ggg
24fff
8aa
8aa#
=372
24ccc
24ddd
24ccc
8ff
8gg
=373
24gg#
24aa#
24gg#
8cc
8cc#
=374
24dd#
24ff
24dd#
8g#
8a#
=375
4.r
=376
4.r
=377
8a
8r
8r
=378
8aa
8r
8r
=379
8aaa
8r
8r
=380
4.d
=381
4.d[
=382
4d]
8r
=383
4.r
=384
4.r
==
*-
